X: 25541
T: Marie's Wedding
R: reel
M: 4/4
K: Bminor
|:B2 fB defd|afge fcdc|B2 fB defd|ecAc ecdc|
B2 fB defd|afge fcdc|B2 fB defd|ecAc dgfe|
d2 fd Adfd|ecAc ecdc|BGBc dcde|f2 b/b/b bafe|
d2 fd Adfd|ecAc ecdc|BGBc dcde|fbab afdc:|

